X: 1
T: BALL AND PIN -- HORNPIPE
B: Ryan's Mammoth Collection of Fiddle Tunes
R: hornpipe
M: 2/4
L: 1/16
Z: Contributed 20010917180947 by John Chambers jmchambers:rcn.net
K: A
 vA,CEA c2(BA) | BEGB d2(cB) | cAeA aecA | BcdB AGFE |
| A,CEA c2(BA) | BEGB d2(cB) | ceAc BAGB | A2a2A2 :|
|: (uefg) \
| aece a2(ga) | fdBd f2(ed) | cAeA aecA | BcdB AGFE |
| aece a2(ga) | fdBd f2(ed) | cAec dBGB | A2a2A2 :|
